;START_OF_HEADER
;HEADER_VERSION:0.1
;FLAVOR:Griffin
;GENERATOR.NAME:Cura_SteamEngine
;GENERATOR.VERSION:master
;GENERATOR.BUILD_DATE:2021-06-02
;TARGET_MACHINE.NAME:Ultimaker 3 Extended
;EXTRUDER_TRAIN.0.INITIAL_TEMPERATURE:230
;EXTRUDER_TRAIN.0.MATERIAL.VOLUME_USED:70805
;EXTRUDER_TRAIN.0.MATERIAL.GUID:506c9f0d-e3aa-4bd4-b2d2-23e2425b1aa9
;EXTRUDER_TRAIN.0.NOZZLE.DIAMETER:0.4
;EXTRUDER_TRAIN.0.NOZZLE.NAME:AA 0.4
;BUILD_PLATE.TYPE:glass
;BUILD_PLATE.INITIAL_TEMPERATURE:62
;PRINT.TIME:67206
;PRINT.GROUPS:1
;PRINT.SIZE.MIN.X:9
;PRINT.SIZE.MIN.Y:6
;PRINT.SIZE.MIN.Z:0.27
;PRINT.SIZE.MAX.X:204.549
;PRINT.SIZE.MAX.Y:204.402
;PRINT.SIZE.MAX.Z:4.97
;END_OF_HEADER
;Generated with Cura_SteamEngine master
T0
M82 ;absolute extrusion mode

G92 E0
M109 S230
G0 F15000 X9 Y6 Z2
G280
G1 F1500 E-6.5
;LAYER_COUNT:48
;LAYER:0
M107
M204 S625
M205 X6 Y6
G0 F4500 X40.065 Y37.993 Z0.27
M204 S500
M205 X5 Y5
;TYPE:SKIRT
G1 F1500 E0
G1 F1080 X43.353 Y34.941 E0.07975
G1 X43.614 Y34.711 E0.08593
G1 X47.053 Y31.826 E0.16572
G1 X47.323 Y31.61 E0.17187
G1 X50.899 Y28.902 E0.25161
G1 X51.179 Y28.701 E0.25773
G1 X54.888 Y26.172 E0.33753
G1 X55.179 Y25.984 E0.34369
G1 X59.008 Y23.645 E0.42345
G1 X59.306 Y23.473 E0.42957
G1 X63.247 Y21.326 E0.50934
G1 X63.553 Y21.169 E0.51546
G1 X67.597 Y19.22 E0.59526
G1 X67.915 Y19.077 E0.60145
G1 X72.049 Y17.335 E0.6812
G1 X72.371 Y17.209 E0.68734
G1 X76.588 Y15.675 E0.76711
G1 X76.914 Y15.565 E0.77323
G1 X81.203 Y14.242 E0.85301
G1 X81.535 Y14.149 E0.85914
G1 X85.883 Y13.041 E0.9389
G1 X86.221 Y12.963 E0.94507
G1 X90.62 Y12.074 E1.02485
G1 X90.96 Y12.014 E1.03098
G1 X95.398 Y11.345 E1.11076
G1 X95.742 Y11.302 E1.11693
G1 X100.206 Y10.856 E1.19667
G1 X100.549 Y10.831 E1.20279
G1 X105.032 Y10.607 E1.28258
G1 X105.378 Y10.598 E1.28873
G1 X109.865 Y10.598 E1.36849
G1 X110.211 Y10.607 E1.37464
G1 X114.693 Y10.831 E1.45441
G1 X115.036 Y10.856 E1.46053
G1 X119.5 Y11.302 E1.54027
G1 X119.844 Y11.345 E1.54644
G1 X124.282 Y12.014 E1.62622
G1 X124.621 Y12.074 E1.63234
G1 X129.021 Y12.963 E1.71213
G1 X129.36 Y13.041 E1.71831
G1 X133.708 Y14.149 E1.79807
G1 X134.041 Y14.242 E1.80422
G1 X138.328 Y15.565 E1.88397
G1 X138.651 Y15.674 E1.89003
G1 X142.869 Y17.207 E1.96981
G1 X143.195 Y17.335 E1.97604
G1 X147.33 Y19.079 E2.05581
G1 X147.646 Y19.221 E2.06197
G1 X151.688 Y21.169 E2.14173
G1 X151.991 Y21.325 E2.14779
G1 X155.933 Y23.47 E2.22756
G1 X156.236 Y23.644 E2.23377
G1 X160.065 Y25.985 E2.31355
G1 X160.353 Y26.172 E2.31965
G1 X164.06 Y28.699 E2.3994
G1 X164.341 Y28.901 E2.40555
G1 X167.919 Y31.611 E2.48534
G1 X168.19 Y31.827 E2.4915
G1 X171.627 Y34.712 E2.57127
G1 X171.885 Y34.939 E2.57738
G1 X175.175 Y37.991 E2.65715
G1 X175.423 Y38.233 E2.66331
G1 X178.557 Y41.446 E2.74309
G1 X178.792 Y41.699 E2.74923
G1 X181.761 Y45.063 E2.82899
G1 X181.983 Y45.329 E2.83515
G1 X184.781 Y48.838 E2.91493
G1 X184.99 Y49.113 E2.92107
G1 X187.609 Y52.756 E3.00082
G1 X187.803 Y53.041 E3.00695
G1 X190.239 Y56.812 E3.08675
G1 X190.42 Y57.107 E3.0929
G1 X192.663 Y60.992 E3.17265
G1 X192.828 Y61.295 E3.17878
G1 X194.875 Y65.287 E3.25853
G1 X195.025 Y65.599 E3.26468
G1 X196.871 Y69.691 E3.34448
G1 X197.005 Y70.009 E3.35061
G1 X198.644 Y74.185 E3.43036
G1 X198.762 Y74.509 E3.43649
G1 X200.192 Y78.763 E3.51627
G1 X200.294 Y79.095 E3.52244
G1 X201.509 Y83.416 E3.60223
G1 X201.594 Y83.749 E3.60834
G1 X202.593 Y88.123 E3.68809
G1 X202.662 Y88.463 E3.69426
G1 X203.441 Y92.883 E3.77404
G1 X203.492 Y93.224 E3.78017
G1 X204.05 Y97.676 E3.85993
G1 X204.085 Y98.021 E3.86609
G1 X204.42 Y102.497 E3.94588
G1 X204.437 Y102.841 E3.952
G1 X204.549 Y107.327 E4.03177
G1 X204.549 Y107.673 E4.03792
G1 X204.437 Y112.159 E4.11769
G1 X204.42 Y112.503 E4.12381
G1 X204.085 Y116.977 E4.20356
G1 X204.05 Y117.321 E4.20971
G1 X203.492 Y121.775 E4.2895
G1 X203.441 Y122.115 E4.29561
G1 X202.663 Y126.535 E4.37539
G1 X202.594 Y126.879 E4.38163
G1 X201.594 Y131.253 E4.46139
G1 X201.509 Y131.585 E4.46748
G1 X200.294 Y135.904 E4.54723
G1 X200.192 Y136.235 E4.55339
G1 X198.762 Y140.49 E4.63318
G1 X198.644 Y140.813 E4.6393
G1 X197.005 Y144.991 E4.71907
G1 X196.87 Y145.311 E4.72525
G1 X195.024 Y149.401 E4.80501
G1 X194.875 Y149.711 E4.81113
G1 X192.829 Y153.703 E4.89087
G1 X192.663 Y154.008 E4.89704
G1 X190.418 Y157.895 E4.97683
G1 X190.239 Y158.189 E4.98295
G1 X187.805 Y161.958 E5.0627
G1 X187.61 Y162.243 E5.06884
G1 X184.99 Y165.887 E5.14862
G1 X184.781 Y166.162 E5.15476
G1 X181.984 Y169.67 E5.23452
G1 X181.763 Y169.934 E5.24064
G1 X178.794 Y173.3 E5.32042
G1 X178.556 Y173.556 E5.32663
G1 X175.421 Y176.768 E5.40642
G1 X175.177 Y177.007 E5.41249
G1 X171.889 Y180.059 E5.49224
G1 X171.628 Y180.289 E5.49842
G1 X168.189 Y183.174 E5.57821
G1 X167.919 Y183.39 E5.58436
G1 X164.343 Y186.098 E5.6641
G1 X164.063 Y186.299 E5.67022
G1 X160.354 Y188.828 E5.75002
G1 X160.063 Y189.016 E5.75618
G1 X156.234 Y191.355 E5.83594
G1 X155.936 Y191.527 E5.84206
G1 X151.995 Y193.674 E5.92183
G1 X151.689 Y193.831 E5.92795
G1 X147.645 Y195.78 E6.00775
G1 X147.327 Y195.923 E6.01394
G1 X143.193 Y197.665 E6.09369
G1 X142.871 Y197.791 E6.09983
G1 X138.654 Y199.325 E6.1796
G1 X138.328 Y199.435 E6.18572
G1 X134.039 Y200.758 E6.2655
G1 X133.707 Y200.851 E6.27163
G1 X129.359 Y201.959 E6.35139
G1 X129.021 Y202.037 E6.35756
G1 X124.622 Y202.926 E6.43734
G1 X124.282 Y202.986 E6.44347
G1 X119.844 Y203.655 E6.52325
G1 X119.5 Y203.698 E6.52942
G1 X115.036 Y204.144 E6.60916
G1 X114.693 Y204.169 E6.61528
G1 X110.21 Y204.393 E6.69507
G1 X109.864 Y204.402 E6.70122
G1 X105.377 Y204.402 E6.78098
G1 X105.031 Y204.393 E6.78713
G1 X100.55 Y204.169 E6.86688
G1 X100.207 Y204.144 E6.873
G1 X95.742 Y203.698 E6.95276
G1 X95.398 Y203.655 E6.95893
G1 X90.96 Y202.986 E7.03871
G1 X90.621 Y202.926 E7.04483
G1 X86.221 Y202.037 E7.12462
G1 X85.882 Y201.959 E7.1308
G1 X81.534 Y200.851 E7.21056
G1 X81.201 Y200.758 E7.21671
G1 X76.914 Y199.435 E7.29646
G1 X76.591 Y199.326 E7.30252
G1 X72.373 Y197.793 E7.3823
G1 X72.047 Y197.665 E7.38853
G1 X67.912 Y195.921 E7.4683
G1 X67.596 Y195.779 E7.47446
G1 X63.554 Y193.831 E7.55422
G1 X63.251 Y193.675 E7.56028
G1 X59.309 Y191.53 E7.64005
G1 X59.006 Y191.356 E7.64626
G1 X55.177 Y189.015 E7.72604
G1 X54.889 Y188.828 E7.73214
G1 X51.182 Y186.301 E7.81189
G1 X50.901 Y186.099 E7.81804
G1 X47.323 Y183.389 E7.89783
G1 X47.052 Y183.173 E7.90399
G1 X43.615 Y180.288 E7.98376
G1 X43.357 Y180.061 E7.98987
G1 X40.067 Y177.009 E8.06964
G1 X39.819 Y176.767 E8.0758
G1 X36.685 Y173.554 E8.15558
G1 X36.45 Y173.301 E8.16172
G1 X33.481 Y169.937 E8.24148
G1 X33.259 Y169.672 E8.24762
G1 X30.46 Y166.162 E8.32743
G1 X30.251 Y165.886 E8.33358
G1 X27.633 Y162.244 E8.41331
G1 X27.439 Y161.959 E8.41944
G1 X25.003 Y158.188 E8.49924
G1 X24.822 Y157.893 E8.5054
G1 X22.579 Y154.008 E8.58514
G1 X22.414 Y153.705 E8.59127
G1 X20.366 Y149.711 E8.67106
G1 X20.216 Y149.399 E8.67721
G1 X18.371 Y145.309 E8.75697
G1 X18.237 Y144.991 E8.7631
G1 X16.598 Y140.815 E8.84285
G1 X16.48 Y140.491 E8.84898
G1 X15.05 Y136.236 E8.92877
G1 X14.948 Y135.904 E8.93495
G1 X13.733 Y131.584 E9.01472
G1 X13.648 Y131.251 E9.02083
G1 X12.649 Y126.877 E9.10058
G1 X12.58 Y126.537 E9.10675
G1 X11.801 Y122.117 E9.18653
G1 X11.75 Y121.775 E9.19268
G1 X11.192 Y117.321 E9.27247
G1 X11.157 Y116.977 E9.27862
G1 X10.822 Y112.503 E9.35837
G1 X10.805 Y112.159 E9.36449
G1 X10.693 Y107.673 E9.44426
G1 X10.693 Y107.327 E9.45041
G1 X10.805 Y102.841 E9.53018
G1 X10.822 Y102.497 E9.5363
G1 X11.157 Y98.023 E9.61605
G1 X11.192 Y97.679 E9.6222
G1 X11.75 Y93.225 E9.70199
G1 X11.801 Y92.885 E9.7081
G1 X12.579 Y88.465 E9.78788
G1 X12.648 Y88.121 E9.79412
G1 X13.648 Y83.747 E9.87388
G1 X13.733 Y83.415 E9.87997
G1 X14.948 Y79.096 E9.95972
G1 X15.05 Y78.765 E9.96588
G1 X16.48 Y74.51 E10.04567
G1 X16.598 Y74.187 E10.05179
G1 X18.237 Y70.009 E10.13156
G1 X18.372 Y69.689 E10.13774
G1 X20.218 Y65.599 E10.2175
G1 X20.367 Y65.289 E10.22362
G1 X22.413 Y61.297 E10.30336
G1 X22.579 Y60.992 E10.30953
G1 X24.824 Y57.105 E10.38932
G1 X25.003 Y56.811 E10.39544
G1 X27.437 Y53.042 E10.47519
G1 X27.632 Y52.757 E10.48133
G1 X30.252 Y49.113 E10.56111
G1 X30.461 Y48.838 E10.56725
G1 X33.258 Y45.33 E10.64701
G1 X33.479 Y45.066 E10.65313
G1 X36.448 Y41.7 E10.73291
G1 X36.686 Y41.444 E10.73912
G1 X39.821 Y38.232 E10.81891
G1 X40.065 Y37.993 E10.82498
M204 S625
M205 X6 Y6
G0 F4500 X40.351 Y38.301
M204 S500
M205 X5 Y5
G1 F1080 X43.639 Y35.249 E10.90473
G1 X43.884 Y35.033 E10.91053
G1 X47.323 Y32.148 E10.99033
G1 X47.577 Y31.945 E10.99611
G1 X51.153 Y29.237 E11.07584
G1 X51.416 Y29.048 E11.0816
G1 X55.125 Y26.519 E11.1614
G1 X55.398 Y26.343 E11.16717
G1 X59.227 Y24.004 E11.24693
G1 X59.507 Y23.842 E11.25268
G1 X63.448 Y21.695 E11.33246
G1 X63.736 Y21.548 E11.33821
G1 X67.78 Y19.599 E11.41801
G1 X68.078 Y19.464 E11.42382
G1 X72.212 Y17.722 E11.50356
G1 X72.515 Y17.603 E11.50935
G1 X76.732 Y16.069 E11.58912
G1 X77.038 Y15.966 E11.59486
G1 X81.327 Y14.643 E11.67464
G1 X81.638 Y14.556 E11.68038
G1 X85.986 Y13.448 E11.76014
G1 X86.304 Y13.375 E11.76594
G1 X90.703 Y12.486 E11.84572
G1 X91.023 Y12.43 E11.8515
G1 X95.461 Y11.761 E11.93128
G1 X95.784 Y11.72 E11.93706
G1 X100.248 Y11.274 E12.01681
G1 X100.57 Y11.25 E12.02255
G1 X105.053 Y11.026 E12.10234
G1 X105.378 Y11.018 E12.10812
G1 X109.865 Y11.018 E12.18788
G1 X110.19 Y11.026 E12.19366
G1 X114.672 Y11.25 E12.27343
G1 X114.994 Y11.274 E12.27917
G1 X119.458 Y11.72 E12.35892
G1 X119.781 Y11.761 E12.3647
G1 X124.219 Y12.43 E12.44449
G1 X124.538 Y12.486 E12.45024
G1 X128.938 Y13.375 E12.53004
G1 X129.257 Y13.448 E12.53586
G1 X133.605 Y14.556 E12.61562
G1 X133.917 Y14.643 E12.62137
G1 X138.204 Y15.966 E12.70112
G1 X138.508 Y16.069 E12.70683
G1 X142.726 Y17.602 E12.78661
G1 X143.032 Y17.722 E12.79245
G1 X147.167 Y19.466 E12.87222
G1 X147.463 Y19.6 E12.878
G1 X151.505 Y21.548 E12.95776
G1 X151.791 Y21.694 E12.96347
G1 X155.733 Y23.839 E13.04324
G1 X156.017 Y24.003 E13.04907
G1 X159.846 Y26.344 E13.12885
G1 X160.117 Y26.519 E13.13458
G1 X163.824 Y29.046 E13.21433
G1 X164.088 Y29.236 E13.22012
G1 X167.666 Y31.946 E13.2999
G1 X167.92 Y32.149 E13.30568
G1 X171.357 Y35.034 E13.38545
G1 X171.599 Y35.247 E13.39118
G1 X174.889 Y38.299 E13.47095
G1 X175.122 Y38.526 E13.47673
G1 X178.256 Y41.739 E13.55652
G1 X178.477 Y41.977 E13.56229
G1 X181.446 Y45.341 E13.64205
G1 X181.655 Y45.59 E13.64783
G1 X184.453 Y49.099 E13.72761
G1 X184.649 Y49.358 E13.73338
G1 X187.268 Y53.001 E13.81314
G1 X187.45 Y53.269 E13.81889
G1 X189.886 Y57.04 E13.8987
G1 X190.056 Y57.317 E13.90448
G1 X192.299 Y61.202 E13.98422
G1 X192.454 Y61.487 E13.98999
G1 X194.501 Y65.479 E14.06973
G1 X194.642 Y65.772 E14.07551
G1 X196.488 Y69.864 E14.15531
G1 X196.614 Y70.163 E14.16108
G1 X198.253 Y74.339 E14.24082
G1 X198.364 Y74.643 E14.24658
G1 X199.794 Y78.897 E14.32635
G1 X199.89 Y79.209 E14.33216
G1 X201.105 Y83.53 E14.41195
G1 X201.185 Y83.842 E14.41767
G1 X202.184 Y88.216 E14.49743
G1 X202.248 Y88.536 E14.50323
G1 X203.027 Y92.956 E14.58301
G1 X203.075 Y93.276 E14.58876
G1 X203.633 Y97.728 E14.66852
G1 X203.666 Y98.052 E14.67431
G1 X204.001 Y102.528 E14.75409
G1 X204.017 Y102.852 E14.75986
G1 X204.129 Y107.338 E14.83963
G1 X204.129 Y107.662 E14.84539
G1 X204.017 Y112.148 E14.92516
G1 X204.001 Y112.472 E14.93092
G1 X203.666 Y116.946 E15.01067
G1 X203.634 Y117.269 E15.01644
G1 X203.076 Y121.723 E15.09624
G1 X203.027 Y122.043 E15.10199
G1 X202.249 Y126.463 E15.18177
G1 X202.184 Y126.785 E15.18761
G1 X201.184 Y131.159 E15.26737
G1 X201.105 Y131.471 E15.27309
G1 X199.89 Y135.79 E15.35284
G1 X199.794 Y136.101 E15.35863
G1 X198.364 Y140.356 E15.43842
G1 X198.253 Y140.659 E15.44416
G1 X196.614 Y144.837 E15.52394
G1 X196.488 Y145.138 E15.52974
G1 X194.642 Y149.228 E15.6095
G1 X194.501 Y149.519 E15.61525
G1 X192.455 Y153.511 E15.69499
G1 X192.299 Y153.798 E15.7008
G1 X190.054 Y157.685 E15.78059
G1 X189.886 Y157.961 E15.78633
G1 X187.452 Y161.73 E15.86609
G1 X187.269 Y161.998 E15.87185
G1 X184.649 Y165.642 E15.95164
G1 X184.453 Y165.9 E15.95739
G1 X181.656 Y169.408 E16.03715
G1 X181.448 Y169.656 E16.0429
G1 X178.479 Y173.022 E16.12269
G1 X178.256 Y173.263 E16.12852
G1 X175.121 Y176.475 E16.20831
G1 X174.891 Y176.699 E16.21401
G1 X171.603 Y179.751 E16.29376
G1 X171.358 Y179.967 E16.29957
G1 X167.919 Y182.852 E16.37936
G1 X167.665 Y183.055 E16.38514
G1 X164.089 Y185.763 E16.46488
G1 X163.826 Y185.952 E16.47063
G1 X160.117 Y188.481 E16.55043
G1 X159.844 Y188.657 E16.55621
G1 X156.015 Y190.996 E16.63597
G1 X155.735 Y191.158 E16.64172
G1 X151.794 Y193.305 E16.72149
G1 X151.506 Y193.452 E16.72724
G1 X147.462 Y195.401 E16.80704
G1 X147.164 Y195.536 E16.81285
G1 X143.03 Y197.278 E16.8926
G1 X142.727 Y197.397 E16.89839
G1 X138.51 Y198.931 E16.97815
G1 X138.204 Y199.034 E16.98389
G1 X133.915 Y200.357 E17.06368
G1 X133.604 Y200.444 E17.06942
G1 X129.256 Y201.552 E17.14918
G1 X128.938 Y201.625 E17.15498
G1 X124.539 Y202.514 E17.23475
G1 X124.219 Y202.57 E17.24053
G1 X119.781 Y203.239 E17.32031
G1 X119.458 Y203.28 E17.3261
G1 X114.994 Y203.726 E17.40585
G1 X114.672 Y203.75 E17.41159
G1 X110.189 Y203.974 E17.49137
G1 X109.864 Y203.982 E17.49715
G1 X105.377 Y203.982 E17.57691
G1 X105.052 Y203.974 E17.58269
G1 X100.571 Y203.75 E17.66245
G1 X100.249 Y203.726 E17.66819
G1 X95.784 Y203.28 E17.74795
G1 X95.461 Y203.239 E17.75374
G1 X91.023 Y202.57 E17.83352
G1 X90.704 Y202.514 E17.83928
G1 X86.304 Y201.625 E17.91907
G1 X85.985 Y201.552 E17.92489
G1 X81.637 Y200.444 E18.00465
G1 X81.325 Y200.357 E18.01041
G1 X77.038 Y199.034 E18.09016
G1 X76.734 Y198.931 E18.09586
G1 X72.516 Y197.398 E18.17564
G1 X72.21 Y197.278 E18.18148
G1 X68.075 Y195.534 E18.26126
G1 X67.779 Y195.4 E18.26703
G1 X63.737 Y193.452 E18.34679
G1 X63.451 Y193.306 E18.3525
G1 X59.509 Y191.161 E18.43228
G1 X59.225 Y190.997 E18.43811
G1 X55.396 Y188.656 E18.51788
G1 X55.125 Y188.481 E18.52362
G1 X51.418 Y185.954 E18.60337
G1 X51.154 Y185.764 E18.60915
G1 X47.576 Y183.054 E18.68894
G1 X47.322 Y182.851 E18.69472
G1 X43.885 Y179.966 E18.77448
G1 X43.643 Y179.753 E18.78021
G1 X40.353 Y176.701 E18.85999
G1 X40.12 Y176.474 E18.86577
G1 X36.986 Y173.261 E18.94555
G1 X36.765 Y173.023 E18.95133
G1 X33.796 Y169.659 E19.03108
G1 X33.587 Y169.41 E19.03686
G1 X30.788 Y165.9 E19.11667
G1 X30.592 Y165.641 E19.12244
G1 X27.974 Y161.999 E19.20217
G1 X27.792 Y161.731 E19.20793
G1 X25.356 Y157.96 E19.28773
G1 X25.186 Y157.683 E19.29351
G1 X22.943 Y153.798 E19.37325
G1 X22.788 Y153.513 E19.37902
G1 X20.74 Y149.519 E19.45881
G1 X20.599 Y149.226 E19.46459
G1 X18.754 Y145.136 E19.54435
G1 X18.628 Y144.837 E19.55011
G1 X16.989 Y140.661 E19.62986
G1 X16.878 Y140.357 E19.63561
G1 X15.448 Y136.102 E19.7154
G1 X15.352 Y135.791 E19.72119
G1 X14.137 Y131.471 E19.80096
G1 X14.057 Y131.158 E19.8067
G1 X13.058 Y126.784 E19.88646
G1 X12.994 Y126.464 E19.89226
G1 X12.215 Y122.044 E19.97204
G1 X12.166 Y121.723 E19.97781
G1 X11.608 Y117.269 E20.05761
G1 X11.576 Y116.946 E20.06338
G1 X11.241 Y112.472 E20.14313
G1 X11.225 Y112.148 E20.14889
G1 X11.113 Y107.662 E20.22866
G1 X11.113 Y107.338 E20.23442
G1 X11.225 Y102.852 E20.31419
G1 X11.241 Y102.528 E20.31996
G1 X11.576 Y98.054 E20.39971
G1 X11.608 Y97.731 E20.40548
G1 X12.166 Y93.277 E20.48527
G1 X12.215 Y92.957 E20.49103
G1 X12.993 Y88.537 E20.5708
G1 X13.058 Y88.215 E20.57664
G1 X14.058 Y83.841 E20.6564
G1 X14.137 Y83.529 E20.66212
G1 X15.352 Y79.21 E20.74188
G1 X15.448 Y78.899 E20.74766
G1 X16.878 Y74.644 E20.82746
G1 X16.989 Y74.341 E20.83319
G1 X18.628 Y70.163 E20.91297
G1 X18.754 Y69.862 E20.91877
G1 X20.6 Y65.772 E20.99854
G1 X20.741 Y65.481 E21.00429
G1 X22.787 Y61.489 E21.08402
G1 X22.943 Y61.202 E21.08983
G1 X25.188 Y57.315 E21.16962
G1 X25.356 Y57.039 E21.17537
G1 X27.79 Y53.27 E21.25512
G1 X27.973 Y53.002 E21.26089
G1 X30.593 Y49.358 E21.34067
G1 X30.789 Y49.1 E21.34643
G1 X33.586 Y45.592 E21.42618
G1 X33.794 Y45.344 E21.43194
G1 X36.763 Y41.978 E21.51172
G1 X36.986 Y41.737 E21.51756
G1 X40.121 Y38.525 E21.59734
G1 X40.351 Y38.301 E21.60305
M204 S625
M205 X6 Y6
G0 F4500 X40.637 Y38.609
M204 S500
M205 X5 Y5
G1 F1080 X43.925 Y35.557 E21.68279
G1 X44.154 Y35.354 E21.68823
G1 X47.593 Y32.469 E21.76803
G1 X47.83 Y32.28 E21.77342
G1 X51.406 Y29.572 E21.85315
