;START_OF_HEADER
;HEADER_VERSION:0.1
;FLAVOR:Griffin
;GENERATOR.NAME:Cura_SteamEngine
;GENERATOR.VERSION:master
;GENERATOR.BUILD_DATE:2021-05-26
;TARGET_MACHINE.NAME:Ultimaker 3 Extended
;EXTRUDER_TRAIN.0.INITIAL_TEMPERATURE:275
;EXTRUDER_TRAIN.0.MATERIAL.VOLUME_USED:58145
;EXTRUDER_TRAIN.0.MATERIAL.GUID:98c05714-bf4e-4455-ba27-57d74fe331e4
;EXTRUDER_TRAIN.0.NOZZLE.DIAMETER:0.4
;EXTRUDER_TRAIN.0.NOZZLE.NAME:AA 0.4
;BUILD_PLATE.TYPE:glass
;BUILD_PLATE.INITIAL_TEMPERATURE:112
;PRINT.TIME:43854
;PRINT.GROUPS:1
;PRINT.SIZE.MIN.X:9
;PRINT.SIZE.MIN.Y:6
;PRINT.SIZE.MIN.Z:0.324
;PRINT.SIZE.MAX.X:211.366
;PRINT.SIZE.MAX.Y:191.607
;PRINT.SIZE.MAX.Z:6.844
;END_OF_HEADER
;Generated with Cura_SteamEngine master
T0
M82 ;absolute extrusion mode

G92 E0
M109 S275
G0 F15000 X9 Y6 Z2
G280
G1 F2100 E-8
;LAYER_COUNT:58
;LAYER:-8
M107
M204 S5000
M205 X30 Y30
G0 F15000 X169.18 Y184.095 Z0.324
M204 S4000
M205 X25 Y25
;TYPE:SUPPORT-INTERFACE
G1 F900 E0
G1 F1350 X168.677 Y184.899 E0.03853
G1 X168.566 Y185.06 E0.04648
G1 X168.046 Y185.769 E0.0822
G1 X167.918 Y185.931 E0.09059
G1 X167.364 Y186.581 E0.12529
G1 X167.236 Y186.721 E0.133
G1 X166.612 Y187.352 E0.16906
G1 X166.499 Y187.458 E0.17535
G1 X165.795 Y188.074 E0.21336
G1 X165.699 Y188.152 E0.21839
G1 X164.959 Y188.709 E0.25602
G1 X164.832 Y188.799 E0.26234
G1 X164.068 Y189.291 E0.29927
G1 X163.932 Y189.372 E0.3057
G1 X163.145 Y189.801 E0.34212
G1 X162.981 Y189.883 E0.34957
G1 X162.173 Y190.25 E0.38562
G1 X162.017 Y190.314 E0.39247
G1 X161.191 Y190.619 E0.42825
G1 X160.994 Y190.684 E0.43668
G1 X160.162 Y190.923 E0.47185
G1 X159.966 Y190.972 E0.48006
G1 X159.133 Y191.148 E0.51465
G1 X158.917 Y191.185 E0.52356
G1 X158.088 Y191.296 E0.55754
G1 X157.877 Y191.316 E0.56615
G1 X156.606 Y191.378 E0.61785
G1 X156.454 Y191.382 E0.62403
G1 X126.542 Y191.381 E1.83938
G1 X125.541 Y191.345 E1.88008
G1 X125.418 Y191.336 E1.88509
G1 X124.501 Y191.234 E1.92258
G1 X124.326 Y191.209 E1.92976
G1 X123.437 Y191.045 E1.96649
G1 X123.314 Y191.017 E1.97162
G1 X122.42 Y190.783 E2.00916
G1 X122.257 Y190.734 E2.01608
G1 X121.415 Y190.448 E2.05221
G1 X121.249 Y190.384 E2.05944
G1 X120.446 Y190.043 E2.09489
G1 X120.257 Y189.955 E2.10336
G1 X119.463 Y189.546 E2.13965
G1 X118.819 Y189.186 E2.16962
G1 X118.724 Y189.156 E2.17367
G1 X118.083 Y188.919 E2.20144
G1 X117.417 Y188.766 E2.2292
G1 X116.738 Y188.697 E2.25693
G1 X116.056 Y188.716 E2.28465
G1 X115.381 Y188.821 E2.31241
G1 X114.72 Y189.01 E2.34034
G1 X113.911 Y189.378 E2.37645
G1 X113.278 Y189.733 E2.40594
G1 X113.167 Y189.791 E2.41103
G1 X112.337 Y190.181 E2.44829
G1 X112.194 Y190.241 E2.45459
G1 X111.335 Y190.57 E2.49197
G1 X111.185 Y190.622 E2.49842
G1 X110.335 Y190.877 E2.53447
G1 X110.162 Y190.924 E2.54176
G1 X109.267 Y191.124 E2.57902
G1 X109.137 Y191.147 E2.58438
G1 X108.232 Y191.281 E2.62156
G1 X108.064 Y191.299 E2.62842
G1 X107.174 Y191.365 E2.66468
G1 X106.573 Y191.381 E2.68911
G1 X76.577 Y191.382 E3.90787
G1 X75.541 Y191.345 E3.94999
G1 X75.418 Y191.336 E3.955
G1 X74.501 Y191.234 E3.99249
G1 X74.326 Y191.209 E3.99967
G1 X73.437 Y191.045 E4.0364
G1 X73.314 Y191.017 E4.04153
G1 X72.42 Y190.783 E4.07908
G1 X72.257 Y190.734 E4.08599
G1 X71.415 Y190.448 E4.12212
G1 X71.249 Y190.384 E4.12935
G1 X70.446 Y190.043 E4.1648
G1 X70.257 Y189.955 E4.17327
G1 X69.463 Y189.547 E4.20954
G1 X69.346 Y189.48 E4.21502
G1 X68.567 Y189.006 E4.25207
G1 X68.416 Y188.906 E4.25943
G1 X67.702 Y188.395 E4.2951
G1 X67.554 Y188.282 E4.30267
G1 X66.863 Y187.706 E4.33922
G1 X66.75 Y187.605 E4.34538
G1 X66.101 Y186.98 E4.38198
G1 X65.981 Y186.855 E4.38902
G1 X65.378 Y186.184 E4.42568
G1 X65.281 Y186.066 E4.43189
G1 X64.734 Y185.357 E4.46827
G1 X64.623 Y185.201 E4.47605
G1 X63.914 Y184.101 E4.52922
G1 X23.925 Y114.841 E7.77869
G1 X23.875 Y114.751 E7.78287
G1 X23.45 Y113.949 E7.81975
G1 X23.359 Y113.76 E7.82827
G1 X23.012 Y112.97 E7.86333
G1 X22.939 Y112.786 E7.87137
G1 X22.644 Y111.953 E7.90728
G1 X22.592 Y111.785 E7.91442
G1 X22.356 Y110.925 E7.95066
G1 X22.316 Y110.758 E7.95764
G1 X22.149 Y109.91 E7.99275
G1 X22.116 Y109.703 E8.00127
G1 X22.011 Y108.847 E8.03631
G1 X21.994 Y108.645 E8.04455
G1 X21.951 Y107.767 E8.08026
G1 X21.949 Y107.572 E8.08819
G1 X21.97 Y106.711 E8.12318
G1 X21.98 Y106.534 E8.13038
G1 X22.068 Y105.634 E8.16713
G1 X22.091 Y105.465 E8.17406
G1 X22.24 Y104.596 E8.20988
G1 X22.277 Y104.416 E8.21735
G1 X22.493 Y103.549 E8.25365
G1 X22.534 Y103.402 E8.25985
G1 X22.816 Y102.541 E8.29666
G1 X22.876 Y102.379 E8.30368
G1 X23.215 Y101.554 E8.33992
G1 X23.289 Y101.394 E8.34708
G1 X23.871 Y100.26 E8.39887
G1 X23.944 Y100.125 E8.40511
G1 X38.904 Y74.214 E9.62076
G1 X38.964 Y74.114 E9.6255
G1 X39.454 Y73.331 E9.66303
G1 X39.549 Y73.19 E9.66994
G1 X40.081 Y72.466 E9.70645
G1 X40.199 Y72.318 E9.71414
G1 X40.763 Y71.656 E9.74947
G1 X40.891 Y71.516 E9.75718
G1 X41.515 Y70.885 E9.79324
G1 X41.628 Y70.779 E9.79953
G1 X42.336 Y70.159 E9.83777
G1 X42.428 Y70.085 E9.84257
G1 X43.168 Y69.528 E9.8802
G1 X43.295 Y69.438 E9.88652
G1 X44.059 Y68.946 E9.92344
G1 X44.65 Y68.593 E9.95141
G1 X44.763 Y68.504 E9.95726
G1 X45.29 Y68.069 E9.98502
G1 X45.756 Y67.57 E10.01276
G1 X46.157 Y67.017 E10.04052
G1 X46.484 Y66.417 E10.06828
G1 X46.733 Y65.782 E10.096
G1 X46.901 Y65.116 E10.1239
G1 X46.99 Y64.218 E10.16057
G1 X46.999 Y63.494 E10.18999
G1 X47.006 Y63.346 E10.19601
G1 X47.087 Y62.409 E10.23422
G1 X47.105 Y62.266 E10.24008
G1 X47.245 Y61.39 E10.27612
G1 X47.28 Y61.217 E10.28329
G1 X47.482 Y60.357 E10.31919
G1 X47.534 Y60.164 E10.32731
G1 X47.798 Y59.33 E10.36285
G1 X47.853 Y59.175 E10.36953
G1 X48.178 Y58.358 E10.40526
G1 X48.266 Y58.163 E10.41395
G1 X48.926 Y56.859 E10.47333
G1 X48.966 Y56.785 E10.47675
G1 X63.91 Y30.905 E11.69099
G1 X64.413 Y30.101 E11.72953
G1 X64.524 Y29.94 E11.73747
G1 X65.044 Y29.231 E11.7732
G1 X65.172 Y29.069 E11.78159
G1 X65.725 Y28.42 E11.81623
G1 X65.845 Y28.289 E11.82345
G1 X66.472 Y27.654 E11.85971
G1 X66.614 Y27.52 E11.86764
G1 X67.282 Y26.936 E11.90369
G1 X67.392 Y26.847 E11.90944
G1 X68.136 Y26.287 E11.94727
G1 X68.267 Y26.195 E11.95378
G1 X69.025 Y25.706 E11.99043
G1 X69.167 Y25.622 E11.99713
G1 X69.942 Y25.201 E12.03297
G1 X70.12 Y25.112 E12.04105
G1 X70.911 Y24.753 E12.07635
G1 X71.08 Y24.683 E12.08378
G1 X71.899 Y24.381 E12.11925
G1 X72.096 Y24.316 E12.12768
G1 X72.928 Y24.077 E12.16285
G1 X73.125 Y24.028 E12.1711
G1 X73.957 Y23.852 E12.20565
G1 X74.173 Y23.815 E12.21455
G1 X75.002 Y23.704 E12.24854
G1 X75.213 Y23.684 E12.25715
G1 X76.484 Y23.622 E12.30885
G1 X76.636 Y23.618 E12.31503
G1 X156.548 Y23.619 E15.56192
G1 X157.549 Y23.655 E15.60262
G1 X157.672 Y23.664 E15.60763
G1 X158.589 Y23.766 E15.64511
G1 X158.764 Y23.791 E15.6523
G1 X159.653 Y23.955 E15.68903
G1 X159.776 Y23.983 E15.69415
G1 X160.67 Y24.217 E15.7317
G1 X160.833 Y24.266 E15.73862
G1 X161.675 Y24.552 E15.77475
G1 X161.841 Y24.616 E15.78198
G1 X162.644 Y24.957 E15.81742
G1 X162.833 Y25.045 E15.82589
G1 X163.627 Y25.453 E15.86216
G1 X163.744 Y25.52 E15.86764
G1 X164.523 Y25.994 E15.90469
G1 X164.674 Y26.094 E15.91205
G1 X165.388 Y26.605 E15.94773
G1 X165.536 Y26.718 E15.95529
G1 X166.227 Y27.294 E15.99184
G1 X166.34 Y27.395 E15.998
G1 X166.989 Y28.02 E16.03461
G1 X167.109 Y28.145 E16.04165
G1 X167.712 Y28.816 E16.0783
G1 X167.808 Y28.932 E16.08442
G1 X168.356 Y29.642 E16.12086
G1 X168.467 Y29.799 E16.12868
G1 X169.169 Y30.888 E16.18132
G1 X169.217 Y30.968 E16.18511
G1 X184.192 Y56.905 E17.40199
G1 X184.247 Y57.003 E17.40655
G1 X184.682 Y57.824 E17.4443
G1 X184.764 Y57.993 E17.45194
G1 X185.116 Y58.793 E17.48745
G1 X185.179 Y58.949 E17.49428
G1 X185.478 Y59.795 E17.53074
G1 X185.53 Y59.959 E17.53773
G1 X185.771 Y60.837 E17.57472
G1 X185.811 Y61.004 E17.5817
G1 X185.978 Y61.852 E17.61682
G1 X186.009 Y62.045 E17.62476
G1 X186.116 Y62.915 E17.66038
G1 X186.132 Y63.102 E17.668
G1 X186.176 Y63.994 E17.70429
G1 X186.183 Y64.653 E17.73106
G1 X186.202 Y64.797 E17.73697
G1 X186.311 Y65.471 E17.76471
G1 X186.506 Y66.126 E17.79247
G1 X186.78 Y66.751 E17.8202
G1 X187.132 Y67.337 E17.84798
G1 X187.555 Y67.873 E17.87572
G1 X188.045 Y68.354 E17.90362
G1 X188.8 Y68.901 E17.9415
G1 X189.435 Y69.279 E17.97153
G1 X189.557 Y69.357 E17.97741
G1 X190.305 Y69.879 E18.01447
G1 X190.448 Y69.987 E18.02175
G1 X191.117 Y70.531 E18.05679
G1 X191.264 Y70.659 E18.0647
G1 X191.918 Y71.277 E18.10126
G1 X192.022 Y71.382 E18.10727
G1 X192.652 Y72.068 E18.14511
G1 X192.732 Y72.161 E18.1501
G1 X193.301 Y72.881 E18.18738
G1 X193.402 Y73.022 E18.19443
G1 X194.193 Y74.235 E18.25327
G1 X194.271 Y74.36 E18.25926
G1 X209.155 Y100.143 E19.46886
G1 X209.216 Y100.25 E19.47387
G1 X209.64 Y101.051 E19.51069
G1 X209.725 Y101.227 E19.51863
G1 X210.078 Y102.03 E19.55427
G1 X210.151 Y102.214 E19.56232
G1 X210.441 Y103.032 E19.59758
G1 X210.493 Y103.198 E19.60465
G1 X210.733 Y104.07 E19.64139
G1 X210.773 Y104.237 E19.64837
G1 X210.948 Y105.127 E19.68523
G1 X210.969 Y105.258 E19.69062
G1 X211.079 Y106.155 E19.72734
G1 X211.095 Y106.341 E19.73492
G1 X211.139 Y107.233 E19.77121
G1 X211.141 Y107.415 E19.7786
G1 X211.12 Y108.289 E19.81412
G1 X211.11 Y108.466 E19.82133
G1 X211.022 Y109.365 E19.85803
G1 X210.999 Y109.535 E19.865
G1 X210.852 Y110.394 E19.90041
G1 X210.814 Y110.58 E19.90812
G1 X210.597 Y111.451 E19.94459
G1 X210.556 Y111.598 E19.95079
G1 X210.274 Y112.459 E19.98761
G1 X210.214 Y112.621 E19.99462
G1 X209.875 Y113.446 E20.03086
G1 X209.801 Y113.606 E20.03803
G1 X209.221 Y114.737 E20.08967
G1 X209.165 Y114.841 E20.09447
G1 X169.18 Y184.095 E23.34364
M204 S5000
M205 X30 Y30
G0 F15000 X169.6 Y183.368
M204 S4000
M205 X25 Y25
G1 F1350 X169.6 Y31.632 E29.5088
M204 S5000
M205 X30 Y30
G0 F15000 X168 Y29.181
M204 S4000
M205 X25 Y25
G1 F1350 X168 Y185.828 E35.87349
M204 S5000
M205 X30 Y30
G0 F15000 X166.4 Y187.545
M204 S4000
M205 X25 Y25
G1 F1350 X166.4 Y27.453 E42.37816
M204 S5000
M205 X30 Y30
G0 F15000 X164.8 Y26.185
M204 S4000
M205 X25 Y25
G1 F1350 X164.8 Y188.82 E48.98615
M204 S5000
M205 X30 Y30
G0 F15000 X163.2 Y189.772
M204 S4000
M205 X25 Y25
G1 F1350 X163.2 Y25.234 E55.67146
M204 S5000
M205 X30 Y30
G0 F15000 X161.6 Y24.527
M204 S4000
M205 X25 Y25
G1 F1350 X161.6 Y190.468 E62.41378
M204 S5000
M205 X30 Y30
G0 F15000 X160 Y190.964
M204 S4000
M205 X25 Y25
G1 F1350 X160 Y24.042 E69.19595
M204 S5000
M205 X30 Y30
G0 F15000 X158.4 Y23.745
M204 S4000
M205 X25 Y25
G1 F1350 X158.4 Y191.255 E76.00202
M204 S5000
M205 X30 Y30
G0 F15000 X156.8 Y191.369
M204 S4000
M205 X25 Y25
G1 F1350 X156.8 Y23.629 E82.81743
M204 S5000
M205 X30 Y30
G0 F15000 X155.2 Y23.619
M204 S4000
M205 X25 Y25
G1 F1350 X155.2 Y191.381 E89.63373
M204 S5000
M205 X30 Y30
G0 F15000 X153.6 Y191.381
M204 S4000
M205 X25 Y25
G1 F1350 X153.6 Y23.619 E96.45004
M204 S5000
M205 X30 Y30
G0 F15000 X152 Y23.619
M204 S4000
M205 X25 Y25
G1 F1350 X152 Y191.381 E103.26634
M204 S5000
M205 X30 Y30
G0 F15000 X150.4 Y191.381
M204 S4000
M205 X25 Y25
G1 F1350 X150.4 Y23.619 E110.08264
M204 S5000
M205 X30 Y30
G0 F15000 X148.8 Y23.619
M204 S4000
M205 X25 Y25
G1 F1350 X148.8 Y191.381 E116.89895
M204 S5000
M205 X30 Y30
G0 F15000 X147.2 Y191.381
M204 S4000
M205 X25 Y25
G1 F1350 X147.2 Y23.619 E123.71525
M204 S5000
M205 X30 Y30
G0 F15000 X145.6 Y23.619
M204 S4000
M205 X25 Y25
G1 F1350 X145.6 Y191.381 E130.53156
M204 S5000
M205 X30 Y30
G0 F15000 X144 Y191.381
M204 S4000
M205 X25 Y25
G1 F1350 X144 Y23.619 E137.34786
M204 S5000
M205 X30 Y30
G0 F15000 X142.4 Y23.619
M204 S4000
M205 X25 Y25
G1 F1350 X142.4 Y191.381 E144.16417
M204 S5000
M205 X30 Y30
G0 F15000 X140.8 Y191.381
M204 S4000
M205 X25 Y25
G1 F1350 X140.8 Y23.619 E150.98047
M204 S5000
M205 X30 Y30
G0 F15000 X139.2 Y23.619
M204 S4000
M205 X25 Y25
G1 F1350 X139.2 Y191.381 E157.79678
M204 S5000
M205 X30 Y30
G0 F15000 X137.6 Y191.381
M204 S4000
M205 X25 Y25
G1 F1350 X137.6 Y23.619 E164.61308
M204 S5000
M205 X30 Y30
G0 F15000 X136 Y23.619
M204 S4000
M205 X25 Y25
G1 F1350 X136 Y191.381 E171.42939
M204 S5000
M205 X30 Y30
G0 F15000 X134.4 Y191.381
M204 S4000
M205 X25 Y25
G1 F1350 X134.4 Y23.619 E178.24569
M204 S5000
M205 X30 Y30
G0 F15000 X132.8 Y23.619
M204 S4000
M205 X25 Y25
G1 F1350 X132.8 Y191.381 E185.062
M204 S5000
M205 X30 Y30
G0 F15000 X131.2 Y191.381
M204 S4000
M205 X25 Y25
G1 F1350 X131.2 Y23.619 E191.8783
M204 S5000
M205 X30 Y30
G0 F15000 X129.6 Y23.619
M204 S4000
M205 X25 Y25
G1 F1350 X129.6 Y191.381 E198.6946
M204 S5000
M205 X30 Y30
G0 F15000 X128 Y191.381
M204 S4000
M205 X25 Y25
G1 F1350 X128 Y23.619 E205.51091
M204 S5000
M205 X30 Y30
G0 F15000 X126.4 Y23.619
M204 S4000
M205 X25 Y25
G1 F1350 X126.4 Y191.375 E212.32697
M204 S5000
M205 X30 Y30
G0 F15000 X124.8 Y191.267
M204 S4000
M205 X25 Y25
G1 F1350 X124.8 Y23.619 E219.13864
M204 S5000
M205 X30 Y30
G0 F15000 X123.2 Y23.619
M204 S4000
M205 X25 Y25
G1 F1350 X123.2 Y190.987 E225.93894
M204 S5000
M205 X30 Y30
G0 F15000 X121.6 Y190.51
M204 S4000
M205 X25 Y25
G1 F1350 X121.6 Y23.619 E232.71985
M204 S5000
M205 X30 Y30
G0 F15000 X120 Y23.619
M204 S4000
M205 X25 Y25
G1 F1350 X120 Y189.822 E239.47282
M204 S5000
M205 X30 Y30
G0 F15000 X118.4 Y189.036
M204 S4000
M205 X25 Y25
G1 F1350 X118.4 Y23.619 E246.19384
M204 S5000
M205 X30 Y30
G0 F15000 X116.8 Y23.619
M204 S4000
M205 X25 Y25
G1 F1350 X116.8 Y188.703 E252.90134
M204 S5000
M205 X30 Y30
G0 F15000 X115.2 Y188.873
M204 S4000
M205 X25 Y25
G1 F1350 X115.2 Y23.619 E259.61574
M204 S5000
M205 X30 Y30
G0 F15000 X113.6 Y23.619
M204 S4000
M205 X25 Y25
G1 F1350 X113.6 Y189.553 E266.35777
M204 S5000
M205 X30 Y30
G0 F15000 X112 Y190.316
M204 S4000
M205 X25 Y25
G1 F1350 X112 Y23.619 E273.1308
M204 S5000
M205 X30 Y30
G0 F15000 X110.4 Y23.619
M204 S4000
M205 X25 Y25
G1 F1350 X110.4 Y190.858 E279.92586
M204 S5000
M205 X30 Y30
G0 F15000 X108.8 Y191.197
M204 S4000
M205 X25 Y25
G1 F1350 X108.8 Y23.619 E286.73469
M204 S5000
M205 X30 Y30
G0 F15000 X107.2 Y23.619
M204 S4000
M205 X25 Y25
G1 F1350 X107.2 Y191.364 E293.5503
M204 S5000
M205 X30 Y30
G0 F15000 X105.6 Y191.382
M204 S4000
M205 X25 Y25
G1 F1350 X105.6 Y23.619 E300.36665
M204 S5000
M205 X30 Y30
G0 F15000 X104 Y23.619
M204 S4000
M205 X25 Y25
G1 F1350 X104 Y191.382 E307.18299
M204 S5000
M205 X30 Y30
G0 F15000 X102.4 Y191.382
M204 S4000
M205 X25 Y25
G1 F1350 X102.4 Y23.619 E313.99934
M204 S5000
M205 X30 Y30
G0 F15000 X100.8 Y23.619
M204 S4000
M205 X25 Y25
G1 F1350 X100.8 Y191.382 E320.81568
M204 S5000
M205 X30 Y30
G0 F15000 X99.2 Y191.382
M204 S4000
M205 X25 Y25
G1 F1350 X99.2 Y23.619 E327.63203
M204 S5000
M205 X30 Y30
G0 F15000 X97.6 Y23.619
M204 S4000
M205 X25 Y25
G1 F1350 X97.6 Y191.382 E334.44837
M204 S5000
M205 X30 Y30
G0 F15000 X96 Y191.382
M204 S4000
M205 X25 Y25
G1 F1350 X96 Y23.619 E341.26472
M204 S5000
M205 X30 Y30
G0 F15000 X94.4 Y23.619
M204 S4000
M205 X25 Y25
G1 F1350 X94.4 Y191.382 E348.08106
M204 S5000
M205 X30 Y30
G0 F15000 X92.8 Y191.382
M204 S4000
M205 X25 Y25
G1 F1350 X92.8 Y23.619 E354.89741
M204 S5000
M205 X30 Y30
G0 F15000 X91.2 Y23.619
M204 S4000
M205 X25 Y25
G1 F1350 X91.2 Y191.382 E361.71375
M204 S5000
M205 X30 Y30
G0 F15000 X89.6 Y191.382
M204 S4000
M205 X25 Y25
G1 F1350 X89.6 Y23.619 E368.5301
M204 S5000
M205 X30 Y30
G0 F15000 X88 Y23.619
M204 S4000
M205 X25 Y25
G1 F1350 X88 Y191.382 E375.34644
M204 S5000
M205 X30 Y30
G0 F15000 X86.4 Y191.382
M204 S4000
M205 X25 Y25
G1 F1350 X86.4 Y23.619 E382.16279
M204 S5000
M205 X30 Y30
G0 F15000 X84.8 Y23.619
M204 S4000
M205 X25 Y25
G1 F1350 X84.8 Y191.382 E388.97913
M204 S5000
M205 X30 Y30
G0 F15000 X83.2 Y191.382
M204 S4000
M205 X25 Y25
G1 F1350 X83.2 Y23.619 E395.79548
M204 S5000
M205 X30 Y30
G0 F15000 X81.6 Y23.619
M204 S4000
M205 X25 Y25
G1 F1350 X81.6 Y191.382 E402.61182
M204 S5000
M205 X30 Y30
G0 F15000 X80 Y191.382
M204 S4000
M205 X25 Y25
G1 F1350 X80 Y23.619 E409.42817
M204 S5000
M205 X30 Y30
G0 F15000 X78.4 Y23.619
M204 S4000
M205 X25 Y25
G1 F1350 X78.4 Y191.382 E416.24451
M204 S5000
M205 X30 Y30
G0 F15000 X76.8 Y191.382
M204 S4000
M205 X25 Y25
G1 F1350 X76.8 Y23.619 E423.06086
M204 S5000
M205 X30 Y30
G0 F15000 X75.2 Y23.685
M204 S4000
M205 X25 Y25
G1 F1350 X75.2 Y191.311 E429.87164
M204 S5000
M205 X30 Y30
G0 F15000 X73.6 Y191.075
M204 S4000
M205 X25 Y25
G1 F1350 X73.6 Y23.927 E436.663
M204 S5000
M205 X30 Y30
G0 F15000 X72 Y24.347
M204 S4000
